public/img/pediatrics.svg

<svg width="38" height="38" viewBox="0 0 38 38" fill="none" xmlns="http://www.w3.org/2000/svg">
<mask id="mask0_138_841" style="mask-type:alpha" maskUnits="userSpaceOnUse" x="0" y="0" width="38" height="38">
<rect width="38" height="38" fill="#D9D9D9"/>
</mask>
<g mask="url(#mask0_138_841)">
<path d="M12.6667 11.0833C12.2181 11.0833 11.8421 10.9316 11.5386 10.6281C11.2351 10.3246 11.0834 9.9486 11.0834 9.49999C11.0834 9.05138 11.2351 8.67534 11.5386 8.37186C11.8421 8.06839 12.2181 7.91666 12.6667 7.91666H17.4167V4.74999C17.4167 4.30138 17.5684 3.92534 17.8719 3.62186C18.1754 3.31839 18.5514 3.16666 19 3.16666C19.4487 3.16666 19.8247 3.31839 20.1282 3.62186C20.4316 3.92534 20.5834 4.30138 20.5834 4.74999V7.91666H25.3334C25.782 7.91666 26.158 8.06839 26.4615 8.37186C26.765 8.67534 26.9167 9.05138 26.9167 9.49999C26.9167 9.9486 26.765 10.3246 26.4615 10.6281C26.158 10.9316 25.782 11.0833 25.3334 11.0833H12.6667ZM14.25 34.8333C13.3792 34.8333 12.6337 34.5233 12.0136 33.9031C11.3934 33.283 11.0834 32.5375 11.0834 31.6667V17.4167C11.0834 16.0972 11.5452 14.9757 12.4688 14.0521C13.3924 13.1285 14.5139 12.6667 15.8334 12.6667H22.1667C23.4862 12.6667 24.6077 13.1285 25.5313 14.0521C26.4549 14.9757 26.9167 16.0972 26.9167 17.4167V31.6667C26.9167 32.5375 26.6066 33.283 25.9865 33.9031C25.3664 34.5233 24.6209 34.8333 23.75 34.8333H14.25ZM14.25 31.6667H23.75V17.4167C23.75 16.968 23.5983 16.592 23.2948 16.2885C22.9914 15.9851 22.6153 15.8333 22.1667 15.8333H15.8334C15.3848 15.8333 15.0087 15.9851 14.7052 16.2885C14.4018 16.592 14.25 16.968 14.25 17.4167V19H17.4167C17.8653 19 18.2414 19.1517 18.5448 19.4552C18.8483 19.7587 19 20.1347 19 20.5833C19 21.0319 18.8483 21.408 18.5448 21.7114C18.2414 22.0149 17.8653 22.1667 17.4167 22.1667H14.25V25.3333H17.4167C17.8653 25.3333 18.2414 25.4851 18.5448 25.7885C18.8483 26.092 19 26.468 19 26.9167C19 27.3653 18.8483 27.7413 18.5448 28.0448C18.2414 28.3483 17.8653 28.5 17.4167 28.5H14.25V31.6667Z" fill="#33B148"/>
</g>
</svg>

<svg xmlns="http://www.w3.org/2000/svg" width="38" height="38" fill="none"><mask id="a" width="38" height="38" x="0" y="0" maskUnits="userSpaceOnUse" style="mask-type:alpha"><path fill="#D9D9D9" d="M0 0h38v38H0z"/></mask><g mask="url(#a)"><path fill="#33B148" d="M12.667 11.083q-.673 0-1.128-.455a1.53 1.53 0 0 1-.456-1.128q0-.673.456-1.128.455-.456 1.128-.455h4.75V4.75q0-.674.455-1.128.455-.455 1.128-.455.674 0 1.128.455.456.455.455 1.128v3.167h4.75q.673 0 1.129.455t.455 1.128-.456 1.128q-.454.456-1.128.455zm1.583 23.75q-1.305 0-2.236-.93a3.05 3.05 0 0 1-.93-2.236v-14.25q0-1.98 1.385-3.365t3.364-1.385h6.334q1.979 0 3.364 1.385 1.386 1.385 1.386 3.365v14.25q0 1.306-.93 2.236t-2.237.93zm0-3.166h9.5v-14.25q0-.673-.455-1.129a1.53 1.53 0 0 0-1.128-.455h-6.334q-.672 0-1.128.455-.455.456-.455 1.129V19h3.167q.672 0 1.128.455.455.456.455 1.128 0 .674-.455 1.128-.456.456-1.128.456H14.25v3.166h3.167q.672 0 1.128.456.455.454.455 1.128 0 .672-.455 1.128-.456.455-1.128.455H14.25z"/></g></svg>
